assets/icons/hammer.svg

<svg width="18" height="18" viewBox="0 0 18 18" fill="none" xmlns="http://www.w3.org/2000/svg">
<g clip-path="url(#clip0_5841_49613)">
<g clip-path="url(#clip1_5841_49613)">
<path d="M2.28174 16.4902L1.13916 15.3403C0.836426 15.0376 0.694824 14.7202 0.714355 14.3882C0.73877 14.0562 0.929199 13.7339 1.28564 13.4214L8.82227 6.81494L10.8291 8.8291L4.20068 16.3438C3.89307 16.6953 3.5708 16.8833 3.23389 16.9077C2.90186 16.9321 2.58447 16.793 2.28174 16.4902ZM14.5645 10.5649L14.0591 10.0669C13.9126 9.93018 13.8247 9.80811 13.7954 9.70068C13.7661 9.59326 13.7563 9.45898 13.7661 9.29785L13.8394 8.54346L13.2974 8.00146L12.2061 8.22119C11.9863 8.26514 11.8008 8.26758 11.6494 8.22852C11.498 8.18457 11.354 8.09424 11.2173 7.95752L9.66455 6.39746C9.479 6.21191 9.35938 6.01172 9.30566 5.79688C9.25195 5.58203 9.28125 5.33545 9.39355 5.05713L9.93555 3.68018C9.42773 3.36768 8.88086 3.21143 8.29492 3.21143C7.71387 3.21143 7.08643 3.3042 6.4126 3.48975C6.29053 3.52881 6.1709 3.53125 6.05371 3.49707C5.93652 3.46289 5.83887 3.4043 5.76074 3.32129C5.6582 3.20898 5.60205 3.06982 5.59229 2.90381C5.5874 2.73779 5.66553 2.57422 5.82666 2.41309C6.21729 2.02734 6.65918 1.72461 7.15234 1.50488C7.64551 1.28027 8.16309 1.14111 8.70508 1.0874C9.25195 1.02881 9.79395 1.04834 10.3311 1.146C10.873 1.23877 11.3882 1.40723 11.8765 1.65137C12.3696 1.89063 12.8091 2.20068 13.1948 2.58154L14.6084 3.99512C14.8574 4.23438 15.0234 4.47363 15.1064 4.71289C15.1895 4.95215 15.2065 5.18896 15.1577 5.42334L14.9233 6.38281L15.4727 6.91748L16.2271 6.84424C16.3833 6.82959 16.5127 6.83936 16.6152 6.87354C16.7227 6.90771 16.8447 6.99316 16.9814 7.12988L17.4941 7.64258C17.626 7.77441 17.6968 7.91846 17.7065 8.07471C17.7163 8.23096 17.6553 8.375 17.5234 8.50684L15.4287 10.5869C15.2969 10.7188 15.1553 10.7822 15.0039 10.7773C14.8525 10.7725 14.7061 10.7017 14.5645 10.5649Z" fill="_COLOR_VAR_"/>
</g>
</g>
<defs>
<clipPath id="clip0_5841_49613">
<rect width="18" height="18" fill="white"/>
</clipPath>
<clipPath id="clip1_5841_49613">
<rect width="18" height="18" fill="white"/>
</clipPath>
</defs>
</svg>

<svg xmlns="http://www.w3.org/2000/svg" width="18" height="18"><g clip-path="url(#a)"><g clip-path="url(#b)"><path d="m2.282 16.49-1.143-1.15q-.454-.453-.425-.952.037-.498.572-.967l7.536-6.606 2.007 2.014-6.628 7.515q-.462.527-.967.564-.498.036-.952-.418m12.282-5.925-.505-.498q-.219-.206-.264-.366-.044-.162-.029-.403l.073-.755-.542-.542-1.09.22q-.33.066-.558.008a1 1 0 0 1-.432-.271l-1.552-1.56a1.3 1.3 0 0 1-.36-.601q-.08-.323.089-.74l.542-1.377a3.1 3.1 0 0 0-1.641-.469q-.872 0-1.882.279a.64.64 0 0 1-.652-.168.66.66 0 0 1-.169-.418q-.007-.25.235-.49.585-.58 1.325-.91a4.9 4.9 0 0 1 1.553-.417 5.7 5.7 0 0 1 1.626.059 5.5 5.5 0 0 1 1.546.505q.74.36 1.318.93l1.413 1.414q.374.36.498.718.125.36.052.71l-.235.96.55.534.754-.073a1 1 0 0 1 .388.03q.162.051.366.256l.513.513a.66.66 0 0 1 .212.432.55.55 0 0 1-.183.432l-2.094 2.08q-.198.198-.425.19-.228-.006-.44-.212"/></g></g><defs><clipPath id="a"><path d="M0 0h18v18H0z"/></clipPath><clipPath id="b"><path d="M0 0h18v18H0z"/></clipPath></defs></svg>
